X: 4
T: Butlers Of Glen Avenue, The
Z: ceolachan
S: https://thesession.org/tunes/820#setting13974
R: jig
M: 6/8
L: 1/8
K: Gmaj
|: DEG EDB, | ~ | DEG EDB, | ~ bars 1 & 5 of the A-part|: DEG EDB, | DEG B3 | DEG ABe | dBe dBA | DEG EDB, | DEG B3 | dBd gfe | dBA G3 :||: gab age | deg B3 | gab gab | dBd e2 d | gab age | deg B3 | dBd gfe | dBA G3 :|
